src/lib/packages/icons/src/assets/line/football.svg

<svg xmlns="http://www.w3.org/2000/svg" width="24" height="24" fill="none"><path fill="currentColor" d="M20.53 18.52c1.39-1.81 2.22-4.07 2.22-6.52 0-5.93-4.82-10.75-10.75-10.75-3.51 0-6.63 1.7-8.59 4.32-.02.02-.03.04-.04.05C2.05 7.41 1.25 9.61 1.25 12c0 2.39.83 4.71 2.22 6.52l.01.01c1.29 1.68 3.07 2.98 5.13 3.66l.09.03c1.04.34 2.15.52 3.3.52s2.26-.19 3.3-.52c.03 0 .06-.02.09-.03 2.06-.69 3.83-1.98 5.13-3.66l.01-.01ZM3.77 7.81l.65 1.71-1.57 1.19c.15-1.03.46-2.01.92-2.91v.01Zm1.69 2.81 1.92.64 1.15 4.6-.93 1.39H4.4a9.188 9.188 0 0 1-1.61-4.6l2.68-2.03h-.01Zm1.96 8.13.38 1.48c-.77-.39-1.48-.89-2.1-1.48h1.72Zm2.5-3.5L8.86 11 12 8.9l3.14 2.1-1.06 4.25H9.92Zm6.66 3.5h1.72c-.63.59-1.33 1.09-2.1 1.48l.38-1.48Zm-.18-1.5-.93-1.39 1.15-4.61 1.9-.63 2.69 2.04c-.12 1.7-.69 3.27-1.61 4.59h-3.2Zm4.75-6.53-1.58-1.2.66-1.73c.46.9.78 1.89.93 2.93h-.01Zm-1.94-4.49-1.13 2.95-1.98.66-3.36-2.24V5.71l2.93-2.19a9.36 9.36 0 0 1 3.54 2.71Zm-5.29-3.27L11.99 4.4l-1.93-1.44a9.43 9.43 0 0 1 1.93-.21c.66 0 1.31.07 1.93.21Zm-5.61.56 2.93 2.19V7.6L7.88 9.84l-1.99-.66-1.12-2.94a9.34 9.34 0 0 1 3.55-2.72h-.01Zm1.2 17.38-.71-2.76.92-1.39h4.54l.92 1.39-.71 2.76c-.79.22-1.62.35-2.48.35-.86 0-1.69-.13-2.48-.35Z"/></svg>

<svg width="24" height="24" viewBox="0 0 24 24" fill="none" xmlns="http://www.w3.org/2000/svg">
<path d="M20.53 18.52C21.92 16.71 22.75 14.45 22.75 12C22.75 6.07 17.93 1.25 12 1.25C8.49 1.25 5.37 2.95001 3.41 5.57001C3.39 5.59001 3.38 5.60999 3.37 5.62C2.05 7.41 1.25 9.61 1.25 12C1.25 14.39 2.08 16.71 3.47 18.52C3.47 18.52 3.47 18.52 3.48 18.53C4.77 20.21 6.55 21.51 8.61 22.19C8.64 22.2 8.67 22.21 8.7 22.22C9.74 22.56 10.85 22.74 12 22.74C13.15 22.74 14.26 22.55 15.3 22.22C15.33 22.22 15.36 22.2 15.39 22.19C17.45 21.5 19.22 20.21 20.52 18.53C20.52 18.53 20.52 18.53 20.53 18.52ZM3.77 7.81L4.42 9.52L2.85 10.71C3 9.68001 3.31 8.7 3.77 7.8V7.81ZM5.46 10.62L7.38 11.26L8.53 15.86L7.6 17.25H4.4C3.48 15.92 2.91 14.35 2.79 12.65L5.47 10.62H5.46ZM7.42 18.75L7.8 20.23C7.03 19.84 6.32 19.34 5.7 18.75H7.42ZM9.92 15.25L8.86 11L12 8.89999L15.14 11L14.08 15.25H9.92ZM16.58 18.75H18.3C17.67 19.34 16.97 19.84 16.2 20.23L16.58 18.75ZM16.4 17.25L15.47 15.86L16.62 11.25L18.52 10.62L21.21 12.66C21.09 14.36 20.52 15.93 19.6 17.25H16.4ZM21.15 10.72L19.57 9.52L20.23 7.78999C20.69 8.68999 21.01 9.68 21.16 10.72H21.15ZM19.21 6.23L18.08 9.17999L16.1 9.84L12.74 7.60001V5.71001L15.67 3.52C17.06 4.13 18.27 5.06 19.21 6.23ZM13.92 2.96001L11.99 4.39999L10.06 2.96001C10.68 2.83001 11.33 2.75 11.99 2.75C12.65 2.75 13.3 2.82001 13.92 2.96001ZM8.31 3.52L11.24 5.71001V7.60001L7.88 9.84L5.89 9.17999L4.77 6.24001C5.71 5.07001 6.92001 4.13 8.32001 3.52H8.31ZM9.50999 20.9L8.8 18.14L9.72 16.75H14.26L15.18 18.14L14.47 20.9C13.68 21.12 12.85 21.25 11.99 21.25C11.13 21.25 10.3 21.12 9.50999 20.9Z" fill="currentColor"/>
</svg>
